!!!COM: Palestrina, Giovanni Perluigi da
!!!OPR: Missa Benedicta es
!!!OTL: Benedictus
**kern	**kern	**kern	**kern	**kern
*Itenor	*Itenor	*Icalto	*Icalto	*Icant
!Tenor 2	!Tenor 1	!Altus 2	!Altus 1	!Cantus
*clefGv2	*clefGv2	*clefG2	*clefG2	*clefG2
*k[]	*k[]	*k[]	*k[]	*k[]
*G:mix	*G:mix	*G:mix	*G:mix	*G:mix
*M4/2	*M4/2	*M4/2	*M4/2	*M4/2
=1	=1	=1	=1	=1
1G	0r	0r	1d	0g
1G	.	.	1d	.
=2	=2	=2	=2	=2
2.c	0r	0r	2e	0g
.	.	.	4c	.
4B	.	.	4d	.
4c	.	.	4e	.
4d	.	.	4f	.
2e	.	.	[2g	.
=3	=3	=3	=3	=3
0d	0r	0r	2g]	0a
.	.	.	4f#	.
.	.	.	4e	.
.	.	.	1f#	.
=4	=4	=4	=4	=4
0r	1G	1d	2g	0b
.	.	.	4G	.
.	.	.	4A	.
.	1G	1d	4B	.
.	.	.	4c	.
.	.	.	4d	.
.	.	.	4B	.
=5	=5	=5	=5	=5
0r	2.c	2e	4c	0g
.	.	.	4d	.
.	.	4c	1e	.
.	4B	4d	.	.
.	4c	4e	.	.
.	4d	4f	.	.
.	2e	[2g	2c	.
=6	=6	=6	=6	=6
0r	0d	2g]	1r	0a
.	.	4f#	.	.
.	.	4e	.	.
.	.	1f#	2r	.
.	.	.	[2d	.
=7	=7	=7	=7	=7
1G	1r	1g	2d]	2r
.	.	.	1e	2g
1A	1c	1r	.	1cc
.	.	.	2f#	.
=8	=8	=8	=8	=8
2G	1d	0r	4g	2b
.	.	.	4G	.
2F	.	.	4A	2.a
.	.	.	4B	.
1E	2c	.	4c	.
.	.	.	4d	4g
.	2B	.	[2e	[2g
=9	=9	=9	=9	=9
1c	1A	1r	4e]	2g]
.	.	.	4d	.
.	.	.	1c	2f#
1d	1G	2r	.	1g
.	.	2d	2B	.
=10	=10	=10	=10	=10
2c	2r	1g	2e	2r
2B	2G	.	2d	2g
4A	1A	2f	1c	1cc
4B	.	.	.	.
4c	.	[2e	.	.
4A	.	.	.	.
=11	=11	=11	=11	=11
4B	2G	4e]	1d	2b
4c	.	4d	.	.
2d	2F	1d	.	2.a
1G	1E	.	1r	.
.	.	.	.	4g
.	.	2c#	.	[2g
=12	=12	=12	=12	=12
1A	1D	1d	1r	2g]
.	.	.	.	2f#
1G	2r	2.B	1d	[1g
.	2d	.	.	.
.	.	8c	.	.
.	.	8d	.	.
=13	=13	=13	=13	=13
2r	2c	2e	1g	1g]
2G	2B	2d	.	.
1c	1A	1r	2f	1r
.	.	.	[2e	.
=14	=14	=14	=14	=14
2B	2G	2r	4e]	1r
.	.	.	4d	.
2.A	2F	2d	2d	.
.	1E	1e	2c	2r
4G	.	.	.	.
[2G	.	.	2B	2g
=15	=15	=15	=15	=15
2G]	0r	2.c	1A	1cc
2F	.	.	.	.
.	.	4A	.	.
2G	.	4B	2G	2b
.	.	4c	.	.
2F	.	2d	2A	[2a
=16	=16	=16	=16	=16
2E	0r	1e	2B	4a]
.	.	.	.	4g
2C	.	.	2c	1g
1D	.	1d	1A	.
.	.	.	.	2f#
=17	=17	=17	=17	=17
1G	2r	1B	1G	[0g
.	2d	.	.	.
1r	2.e	2r	1r	.
.	.	2c	.	.
.	4d	.	.	.
=18	=18	=18	=18	=18
0r	2c	2e	2r	0g]
.	2B	2d	2d	.
.	2.c	2.c	2.e	.
.	4B	4d	4d	.
=19	=19	=19	=19	=19
0r	2A	2e	4c	0r
.	.	.	4A	.
.	2F	2f	1d	.
.	2G	1e	.	.
.	2A	.	2c	.
=20	=20	=20	=20	=20
0r	2D	2.d	1.f	0r
.	1d	.	.	.
.	.	4e	.	.
.	.	4f	.	.
.	.	4g	.	.
.	2c	[2a	2e	.
=21	=21	=21	=21	=21
0r	2B	4a]	2d	1r
.	.	4g	.	.
.	4A	1g	2e	.
.	4G	.	.	.
.	1A	.	1c	1a
.	.	2f#	.	.
=22	=22	=22	=22	=22
2r	2.G	1g	2d	1.b
2d	.	.	2G	.
.	4F	.	.	.
2.e	4E	1r	2.g	.
.	4D	.	.	.
.	[2E	.	.	2g
4d	.	.	4f	.
=23	=23	=23	=23	=23
2c	4E]	2r	2e	1g
.	4C	.	.	.
2B	2G	2d	2d	.
2.c	1C	2.e	1c	1g
4B	.	4d	.	.
=24	=24	=24	=24	=24
2A	0r	4c	0r	1f
.	.	4A	.	.
2F	.	1d	.	.
2G	.	.	.	1e
2A	.	2c#	.	.
=25	=25	=25	=25	=25
2D	0r	1d	2r	2.f
1d	.	.	2d	.
.	.	.	.	4g
.	.	1A	1e	4a
.	.	.	.	4b-
2c	.	.	.	[2a
=26	=26	=26	=26	=26
2B	0D	0r	1.d	4a]
.	.	.	.	4g
4A	.	.	.	1g
4G	.	.	.	.
1A	.	.	.	.
.	.	.	2d	2f#
=27	=27	=27	=27	=27
2G	2.E	0r	2B	2.g
2c	.	.	2e	.
.	4F	.	.	4a
2B	[1G	.	2.d	4b
.	.	.	.	4a
4G	.	.	.	4b
4A	.	.	4c	4cc
=28	=28	=28	=28	=28
4B	2G]	1r	2B	1dd
4c	.	.	.	.
1d	2F	.	2A	.
.	1E	1e	2B	1g
2c#	.	.	2G	.
=29	=29	=29	=29	=29
2d	1D	1.f	2A	1r
2d	.	.	4d	.
.	.	.	4e	.
2d	1r	.	4f	1a
.	.	.	4g	.
2d	.	2d	4a	.
.	.	.	4f	.
=30	=30	=30	=30	=30
1G	2r	1d	2g	1.b
.	2G	.	4G	.
.	.	.	4A	.
1r	2G	1d	4B	.
.	.	.	4c	.
.	2G	.	4d	2g
.	.	.	4B	.
=31	=31	=31	=31	=31
1r	1C	1c	1e	[0g
2r	2G	1B	1d	.
2G	2G	.	.	.
=32	=32	=32	=32	=32
2G	1C	2.c	2.e	0g]
2G	.	.	.	.
.	.	4d	4d	.
1C	1r	4e	2.c	.
.	.	4f	.	.
.	.	[2e	.	.
.	.	.	4B	.
=33	=33	=33	=33	=33
4D	0r	4e]	1A	1f
4E	.	4d	.	.
4F	.	1d	.	.
4G	.	.	.	.
1A	.	.	2r	1e
.	.	2c#	2A	.
=34	=34	=34	=34	=34
2.D	2r	2d	2A	2.f
.	2d	2.f	2A	.
4E	.	.	.	4g
2F	2d	.	2D	4a
.	.	4d	.	4b-
2D	2d	2f	4A	[2a
.	.	.	4B	.
=35	=35	=35	=35	=35
1E	1G	2e	4c	4a]
.	.	.	4B	4g
.	.	2c	4A	1g
.	.	.	4G	.
1D	2r	1d	2A	.
.	[2d	.	2A	2f#
=36	=36	=36	=36	=36
0G	4d]	1B	2G	0g
.	4c	.	.	.
.	4B	.	2d	.
.	4A	.	.	.
.	2B	2r	2d	.
.	2B	2d	2d	.
=37	=37	=37	=37	=37
2r	1G	2d	2.g	0b
2G	.	2d	.	.
.	.	.	4f	.
2G	1r	2.g	2e	.
2G	.	.	2d	.
.	.	4f	.	.
=38	=38	=38	=38	=38
2.c	0r	4e	2e	0cc
.	.	4d	.	.
.	.	1e	2A	.
4B	.	.	.	.
4A	.	.	2.c	.
4G	.	.	.	.
[2A	.	2e	.	.
.	.	.	4d	.
=39	=39	=39	=39	=39
2A]	0r	4c	2e	0cc
.	.	4A	.	.
2F	.	2.a	2f	.
2c	.	.	1e	.
.	.	4g	.	.
2c	.	[2g	.	.
=40	=40	=40	=40	=40
0d	1D	2g]	1r	0a
.	.	4f#	.	.
.	.	4e	.	.
.	2D	2f#	2r	.
.	2D	2f#	2d	.
=41	=41	=41	=41	=41
0r	2.G	2g	2d	0b
.	.	2G	2d	.
.	4F	.	.	.
.	4E	2G	2.g	.
.	4D	.	.	.
.	[2E	2G	.	.
.	.	.	4f	.
=42	=42	=42	=42	=42
0r	2E]	1.c	4e	[0g
.	.	.	4d	.
.	2C	.	1e	.
.	[1G	.	.	.
.	.	4B	4d	.
.	.	4A	4c	.
=43	=43	=43	=43	=43
0r	1G]	4B	2d	1g]
.	.	4c	.	.
.	.	4d	2B	.
.	.	4B	.	.
.	1C	1c	2e	[1g
.	.	.	2e	.
=44	=44	=44	=44	=44
2r	1D	1A	1d	2g]
2D	.	.	.	4f#
.	.	.	.	4e
2D	1r	1A	2r	4f#
.	.	.	.	2g
2D	.	.	2d	.
.	.	.	.	4f#
=45	=45	=45	=45	=45
2.G	2r	0B	2d	[0g
.	2.G	.	2d	.
4F	.	.	.	.
4E	.	.	2.g	.
4D	4G	.	.	.
[2E	2G	.	.	.
.	.	.	4f	.
=46	=46	=46	=46	=46
2E]	1.c	2r	4e	1g_
.	.	.	4d	.
2C	.	2c	2e	.
[1G	.	1d	2d	1g_
.	4B	.	[2G	.
.	4A	.	.	.
=47	=47	=47	=47	=47
1G]	4B	1d	2G]	0g]
.	2c	.	.	.
.	.	.	2.g	.
.	4B	.	.	.
2.C	2c	2e	.	.
.	.	.	4f	.
.	2c	[2g	[2e	.
4D	.	.	.	.
=48	=48	=48	=48	=48
1E	[0G	4g]	4e]	[0g
.	.	4f	4d	.
.	.	4e	2B	.
.	.	4d	.	.
1C	.	2e	1c	.
.	.	2e	.	.
=49	=49	=49	=49	=49
0G	0G]	0d	0B	0g]
==	==	==	==	==
*-	*-	*-	*-	*-
!!!CDT: 1525/^1526/-1594/2/2
!!!OCY: Italia
!!!AGN: Mass (Parody)
!!!AST: renaissance, vocal
!!!ASW: Motet 1520 (Josquin)
!!!PWK: Masses, Book 11
!!!RNB: Cadence finals: D
!!!YOR: Le Opere Complete, v. 28, p. 222
!!!YOO: Rome, Italy: Fratelli Scalera
!!!END: 1992//
!!!EED: John Miller
!!!YEC: Copyright 2000, John Miller
!!!YEN: United States of America
!!!YEM: Rights to all derivative electronic formats reserved.
!!!YEM: Refer to licensing agreement for further details.
!!!YEM: This file must be accompanied by the licensing agreement.
!!!YEM: A copy of the licensing agreement may be found at http://www.music-cog.ohio-state.edu/HumdrumDatabases/Palestrina/license.txt
!!!EMD: converted to Humdrum by Bret Aarden
